X: 1746
T: Sevda ile Dillendi...
C: Münir Nurettin Selçuk
O: Turkey
F: http://compmusic.upf.edu/node/140
N: rast--sarki--senginsemai--sevda_ile_dillendi--munir_nurettin_selcuk
N: makam= rast
N: form= sarki
N: usul= senginsemai = 6/4
M: 6/4
L: 1/16
K: C _1/4B ^f  
Q: 1/4=72
%%MIDI tuningsystem comma53
G4 G4 A4 B4 c3B A2B2  | c2d2 c2B2 B2{c}BA G4 d8  | \
w:  Sev da  i le  dil  |  len *  *  *  di  *  *  *  bu  son   | 
d2{f}ed c4 c2{e}dc B4 c2d2 e2{f}ed  | 
w:  şar *  *  *  *  kı  *  *  *  se sin  | 
d3c c3B B3A A2{c}BA G6z2  | G4 G4 A4 B4 c3B A2B2  | \
w:  le   *  SAZ  |  Sev da  i le  dil  | 
c2d2 c2B2 B2{c}BA G4 d8  | 
w:  len *  *  *  di  *  *  *  bu  son   | 
d2{f}ed c4 c2{e}dc B4 c2d2 e2{f}ed  | \
w:  şar *  *  *  *  kı  *  *  *  se sin  | 
d8 z4 e2=f2 d6z2  | d4 d4 e2{g}=fe edd^c d4 z4  | 
w:  le   SAZ  |  İs ya nı  *  *  *  bı *  *  *  rak   | 
e2f2 g2{a}gf f3e d4 g8  | a2g2 a2g2 f3e d2e2 =f3e d2e2  | 
w:  gel  *  *  *  *  *  de  *  bu  son   |  bes *  *  *  te *  yi  *  din  | 
^c4 d8 e2f2 g6z2  | d4 g4 g2f2 f2e2 agfe d4  | \
w:  le   *  SAZ  |  İs ya nı  *  bı *  rak   | 
d2=f2 e2d2 d3c dcB^A B6d2  | 
w:  gel  *  *  *  de  *  bu  *  *  *  son   | 
d2c2 d2c2 B3A G2A2 B2{c}BA G2A2  | \
w:  bes *  *  *  te *  yi  *  din  | 
F4 G8 B2c2 d6z2  | c3d d4 d4 _7/8e2{g}fe d6c2  | 
w:  le   *  SAZ  |  Ru *  hum da ki  *  *  *  dert   | 
d2_7/8e4ed d3c dccB B8  | B2c2 d2_7/8e2 d2c2 B2c2 B2_7/8A4AG  | 
w:  bir  *  *  *  ge *  ce  *  *  *  ağ  |  laş *  *  *  sa  *  se *  nin  | 
G8 z4 d2_7/8ef g8  | f4 g4 g4 g2fg _7/8a6g2  | \
w:  le   SAZ  |  Hic ra nı  u *  *  nut  | 
g6gf f2_7/8e2 e2g2 gfed e3d  | 
w:  tur  *  *  ba *  na  *  çıl  | 
d3_7/8e f2g2 (3a2g2a2 (3g2f2g2 (3f2e2g2 feed  | \
w:  gın  *  *  *  he *  *  ve *  *  sin  | 
d8 e2{g}=fe edd^c d6z2  | 
w:  le   SAZ  | 
d4 d4 e2{g}=fe edd^c d4 z4  | e2f2 g2{a}gf f3e d4 g8  | \
w:  İs ya nı  *  *  *  bı *  *  *  rak   |  gel  *  *  *  *  *  de  *  bu  son   | 
a2g2 a2g2 f3e d2e2 =f3e d2e2  | 
w:  bes *  *  *  te *  yi  *  din  | 
^c4 d8 e2f2 g6z2  | d4 g4 g2f2 f2e2 agfe d4  | \
w:  le   *  SAZ  |  İs ya nı  *  bı *  rak   | 
d2=f2 e2d2 d3c dcB^A B6d2  | 
w:  gel  *  *  *  de  *  bu  *  *  *  son   | 
d2c2 d2c2 B3A G2A2 B2{c}BA G2A2  | \
w:  bes *  *  *  te *  yi  *  din  | 
F4 G8 |
w:  le    | 


